gama.ui.shared/icons_svg/dark/experiment/experiment.sync.svg

<svg height="25" viewBox="-526.774 -3215.705 25 25" width="25" xmlns="http://www.w3.org/2000/svg"><g fill="none"><circle cx="-514.274" cy="-3203.205" fill="#666" r="12"/><circle cx="-514.274" cy="-3203.205" r="12" stroke="#fff" stroke-linecap="round" stroke-linejoin="round" stroke-width=".25"/><path d="m-518.159-3198.357c-1.4529-1.1653-2.3309-2.9368-2.3309-4.856 0-3.2865 2.564-6.006 5.8273-6.2.21753-.0156.3807-.1943.36516-.412-.01556-.2174-.19426-.3806-.4118-.365-3.67506.2252-6.55766 3.2787-6.55766 6.977 0 2.1446.979 4.126 2.5951 5.439h-2.2066c-.21754 0-.3885.171-.3885.3884 0 .2176.17096.3886.3885.3886h3.1079c.21755 0 .3885-.171.3885-.3886v-3.1079c0-.2175-.17095-.3885-.3885-.3885s-.3885.171-.3885.3885zm7.7697-9.704c1.45295 1.1653 2.3309 2.9368 2.3309 4.856 0 3.302-2.5795 6.0214-5.8583 6.208-.2176.0154-.38074.194-.3652.4117.01554.2175.19424.3807.4118.3653 3.6906-.2177 6.5887-3.279 6.5887-6.993 0-2.1443-.979-4.1256-2.5951-5.4387h2.2066c.21757 0 .3885-.1709.3885-.3883 0-.2177-.17093-.3886-.3885-.3886h-3.10787c-.21753 0-.38848.1709-.38848.3886v3.1077c0 .2176.17095.3885.38848.3885.21757 0 .38847-.1709.38847-.3885v-2.1367z" fill="#c0e0ff"/></g></svg>

<?xml version="1.0" encoding="UTF-8" standalone="no"?>
<!DOCTYPE svg PUBLIC "-//W3C//DTD SVG 1.1//EN" "http://www.w3.org/Graphics/SVG/1.1/DTD/svg11.dtd">
<svg xmlns="http://www.w3.org/2000/svg" xmlns:xl="http://www.w3.org/1999/xlink" version="1.1" xmlns:dc="http://purl.org/dc/elements/1.1/" viewBox="-526.77413 -3215.705 24.999996 25" width="24.999996" height="25">
  <defs/>
  <g id="SOURCES" stroke-opacity="1" fill="none" stroke="none" fill-opacity="1" stroke-dasharray="none">
    <title>SOURCES</title>
    <g id="SOURCES_Dark">
      <title>Dark</title>
      <g id="Graphic_11356">
        <circle cx="-514.27413" cy="-3203.205" r="12.000018268838" fill="#666"/>
        <circle cx="-514.27413" cy="-3203.205" r="12.000018268838" stroke="white" stroke-linecap="round" stroke-linejoin="round" stroke-width=".25"/>
      </g>
      <g id="Graphic_11355">
        <path d="M -518.159 -3198.357 C -519.6119 -3199.5223 -520.4899 -3201.2938 -520.4899 -3203.213 C -520.4899 -3206.4995 -517.9259 -3209.219 -514.6626 -3209.413 C -514.44507 -3209.4286 -514.2819 -3209.6073 -514.29744 -3209.825 C -514.313 -3210.0424 -514.4917 -3210.2056 -514.70924 -3210.19 C -518.3843 -3209.9648 -521.2669 -3206.9113 -521.2669 -3203.213 C -521.2669 -3201.0684 -520.2879 -3199.087 -518.6718 -3197.774 L -520.8784 -3197.774 C -521.09594 -3197.774 -521.2669 -3197.603 -521.2669 -3197.3856 C -521.2669 -3197.168 -521.09594 -3196.997 -520.8784 -3196.997 L -517.7705 -3196.997 C -517.55295 -3196.997 -517.382 -3197.168 -517.382 -3197.3856 L -517.382 -3200.4935 C -517.382 -3200.711 -517.55295 -3200.882 -517.7705 -3200.882 C -517.98805 -3200.882 -518.159 -3200.711 -518.159 -3200.4935 Z M -510.3893 -3208.061 C -508.93635 -3206.8957 -508.0584 -3205.1242 -508.0584 -3203.205 C -508.0584 -3199.903 -510.6379 -3197.1836 -513.9167 -3196.997 C -514.1343 -3196.9816 -514.29744 -3196.803 -514.2819 -3196.5853 C -514.26636 -3196.3678 -514.08766 -3196.2046 -513.8701 -3196.22 C -510.1795 -3196.4377 -507.2814 -3199.499 -507.2814 -3203.213 C -507.2814 -3205.3573 -508.2604 -3207.3386 -509.8765 -3208.6517 L -507.6699 -3208.6517 C -507.45233 -3208.6517 -507.2814 -3208.8226 -507.2814 -3209.04 C -507.2814 -3209.2577 -507.45233 -3209.4286 -507.6699 -3209.4286 L -510.77777 -3209.4286 C -510.9953 -3209.4286 -511.16625 -3209.2577 -511.16625 -3209.04 L -511.16625 -3205.9323 C -511.16625 -3205.7147 -510.9953 -3205.5438 -510.77777 -3205.5438 C -510.5602 -3205.5438 -510.3893 -3205.7147 -510.3893 -3205.9323 L -510.3893 -3208.069 Z" fill="#c0e0ff"/>
      </g>
    </g>
  </g>
</svg>
